; generated by Slic3r 1.0.0RC3 on 2014-05-22 at 20:33:53

; layer_height = 0.4
; perimeters = 3
; top_solid_layers = 3
; bottom_solid_layers = 3
; fill_density = 0.4
; perimeter_speed = 30
; infill_speed = 60
; travel_speed = 130
; nozzle_diameter = 0.5
; filament_diameter = 3
; extrusion_multiplier = 1
; perimeters extrusion width = 0.50mm
; infill extrusion width = 0.53mm
; solid infill extrusion width = 0.53mm
; top infill extrusion width = 0.53mm
; first layer extrusion width = 0.70mm

G21 ; set units to millimeters
M107
M104 S200 ; set temperature
G28 ; home all axes
G1 Z5 F5000 ; lift nozzle

M109 S200 ; wait for temperature to be reached
G90 ; use absolute coordinates
G92 E0
M82 ; use absolute distances for extrusion
G1 F1800.000 E-0.7:-0.3:-0
G92 E0
G1 Z0.350 F7800.000
G1 X106.920 Y55.290 F7800.000
G1 E0.7:0.3:0 F1800.000
G1 X107.930 Y54.470 E0.729631:0.312699:0 F540.000
G1 X109.070 Y53.850 E0.759185:0.325365:0
G1 X110.320 Y53.470 E0.788935:0.338115:0
G1 X111.610 Y53.340 E0.818468:0.350772:0
G1 X139.800 Y53.250 E1.46049:0.625923:0
G1 X141.100 Y53.380 E1.49024:0.638676:0
G1 X142.360 Y53.760 E1.52021:0.651519:0
G1 X143.510 Y54.370 E1.54986:0.664227:0
G1 X144.530 Y55.200 E1.57981:0.677061:0
G1 X144.790 Y55.460 E1.58819:0.680652:0
G1 X145.620 Y56.470 E1.61796:0.693411:0
G1 X146.230 Y57.620 E1.6476:0.706116:0
G1 X146.610 Y58.870 E1.67736:0.718869:0
G1 X146.740 Y60.170 E1.70712:0.731622:0
G1 X146.740 Y141.290 E3.55459:1.5234:0
G1 X146.610 Y142.590 E3.58435:1.53615:0
G1 X146.230 Y143.840 E3.61411:1.5489:0
G1 X145.620 Y144.990 E3.64375:1.56161:0
G1 X144.790 Y146.000 E3.67352:1.57437:0
G1 X144.530 Y146.260 E3.68189:1.57796:0
G1 X143.490 Y147.100 E3.71234:1.59101:0
G1 X142.310 Y147.720 E3.7427:1.60402:0
G1 X141.030 Y148.100 E3.77311:1.61705:0
G1 X139.700 Y148.210 E3.80351:1.63007:0
G1 X60.050 Y146.740 E5.61781:2.40763:0
G1 X58.780 Y146.590 E5.64694:2.42012:0
G1 X57.570 Y146.210 E5.67582:2.4325:0
G1 X56.450 Y145.600 E5.70487:2.44494:0
G1 X55.460 Y144.790 E5.734:2.45743:0
G1 X55.200 Y144.530 E5.74237:2.46102:0
G1 X54.370 Y143.510 E5.77233:2.47385:0
G1 X53.760 Y142.360 E5.80197:2.48656:0
G1 X53.380 Y141.100 E5.83195:2.4994:0
G1 X53.250 Y139.800 E5.8617:2.51216:0
G1 X53.340 Y111.610 E6.50372:2.78731:0
G1 X53.470 Y110.320 E6.53325:2.79996:0
G1 X53.850 Y109.070 E6.563:2.81272:0
G1 X54.470 Y107.930 E6.59256:2.82538:0
G1 X55.290 Y106.920 E6.62219:2.83808:0
G1 X106.850 Y55.360 E8.28285:3.54979:0
G1 F1800.000 E7.58285:3.24979:0
G92 E0
G1 X112.328 Y61.662 F7800.000
G1 E0.7:0.3:0 F1800.000
G1 X138.423 Y61.581 E1.29432:0.554709:0 F540.000
G1 X138.423 Y139.865 E3.07722:1.31881:0
G1 X61.581 Y138.449 E4.82758:2.06896:0
G1 X61.662 Y112.328 E5.42248:2.32392:0
G1 X112.258 Y61.732 E7.05209:3.02232:0
G1 X112.055 Y61.006 F7800.000
G1 X139.080 Y60.922 E7.66759:3.28611:0 F540.000
G1 X139.080 Y140.535 E9.48074:4.06318:0
G1 X60.922 Y139.094 E11.2611:4.82618:0
G1 X61.006 Y112.055 E11.8769:5.0901:0
G1 X111.985 Y61.075 E13.5188:5.79379:0
G1 X111.782 Y60.350 F7800.000
G1 X139.738 Y60.263 E14.1555:6.06666:0 F378.000
G1 X139.738 Y141.204 E15.9989:6.85669:0
G1 X60.263 Y139.739 E17.8093:7.63254:0
G1 X60.350 Y111.782 E18.446:7.90542:0
G1 X111.712 Y60.419 E20.1003:8.6144:0
G1 X112.247 Y60.813 F7800.000
G1 X137.009 Y62.052 F7800.000
G1 X137.957 Y63.000 E20.1309:8.62752:0 F1080.000
G1 X137.957 Y63.931 E20.1521:8.63663:0
G1 X136.080 Y62.055 E20.2127:8.6626:0
G1 X135.152 Y62.058 E20.2339:8.67168:0
G1 X137.957 Y64.863 E20.3245:8.71049:0
G1 X137.957 Y65.794 E20.3457:8.7196:0
G1 X134.223 Y62.060 E20.4663:8.77126:0
G1 X133.295 Y62.063 E20.4875:8.78034:0
G1 X137.957 Y66.725 E20.638:8.84484:0
G1 X137.957 Y67.657 E20.6592:8.85395:0
G1 X132.366 Y62.066 E20.8397:8.93129:0
G1 X131.438 Y62.069 E20.8609:8.94038:0
G1 X137.957 Y68.588 E21.0713:9.03057:0
G1 X137.957 Y69.520 E21.0926:9.03968:0
G1 X130.509 Y62.072 E21.333:9.14272:0
G1 X129.581 Y62.075 E21.3542:9.1518:0
G1 X137.957 Y70.451 E21.6246:9.26768:0
G1 X137.957 Y71.382 E21.6458:9.27679:0
G1 X128.652 Y62.078 E21.9462:9.40552:0
G1 X127.724 Y62.081 E21.9674:9.4146:0
G1 X137.957 Y72.314 E22.2977:9.55617:0
G1 X137.957 Y73.245 E22.319:9.56528:0
G1 X126.795 Y62.083 E22.6793:9.7197:0
G1 X125.867 Y62.086 E22.7005:9.72878:0
G1 X137.957 Y74.176 E23.0908:9.89605:0
G1 X137.957 Y75.108 E23.112:9.90516:0
G1 X124.939 Y62.089 E23.5323:10.0853:0
G1 X124.010 Y62.092 E23.5535:10.0943:0
G1 X137.957 Y76.039 E24.0037:10.2873:0
G1 X137.957 Y76.970 E24.025:10.2964:0
G1 X123.082 Y62.095 E24.5052:10.5022:0
G1 X122.153 Y62.098 E24.5263:10.5113:0
G1 X137.957 Y77.902 E25.0365:10.7299:0
G1 X137.957 Y78.833 E25.0578:10.739:0
G1 X121.225 Y62.101 E25.5979:10.9705:0
G1 X120.296 Y62.104 E25.6191:10.9796:0
G1 X137.957 Y79.764 E26.1892:11.2239:0
G1 X137.957 Y80.696 E26.2105:11.2331:0
G1 X119.368 Y62.107 E26.8106:11.4902:0
G1 X118.439 Y62.109 E26.8317:11.4993:0
G1 X137.957 Y81.627 E27.4618:11.7693:0
G1 X137.957 Y82.559 E27.4831:11.7785:0
G1 X117.511 Y62.112 E28.1431:12.0613:0
G1 X116.582 Y62.115 E28.1643:12.0704:0
G1 X137.957 Y83.490 E28.8543:12.3661:0
G1 X137.957 Y84.421 E28.8755:12.3752:0
G1 X115.654 Y62.118 E29.5955:12.6838:0
G1 X114.725 Y62.121 E29.6167:12.6929:0
G1 X137.957 Y85.353 E30.3667:13.0143:0
G1 X137.957 Y86.284 E30.3879:13.0234:0
G1 X113.797 Y62.124 E31.1678:13.3576:0
G1 X112.868 Y62.127 E31.189:13.3667:0
G1 X137.957 Y87.215 E31.9989:13.7138:0
G1 X137.957 Y88.147 E32.0202:13.7229:0
G1 X112.237 Y62.427 E32.8504:14.0788:0
G1 X111.771 Y62.892 E32.8655:14.0852:0
G1 X137.957 Y89.078 E33.7108:14.4475:0
G1 X137.957 Y90.009 E33.732:14.4566:0
G1 X111.306 Y63.358 E34.5924:14.8253:0
G1 X110.840 Y63.824 E34.6074:14.8318:0
G1 X137.957 Y90.941 E35.4828:15.2069:0
G1 X137.957 Y91.872 E35.504:15.216:0
G1 X110.374 Y64.289 E36.3945:15.5976:0
G1 X109.908 Y64.755 E36.4095:15.6041:0
G1 X137.957 Y92.803 E37.3149:15.9921:0
G1 X137.957 Y93.735 E37.3362:16.0012:0
G1 X109.443 Y65.221 E38.2567:16.3957:0
G1 X108.977 Y65.686 E38.2717:16.4022:0
G1 X137.957 Y94.666 E39.2072:16.8031:0
G1 X137.957 Y95.597 E39.2284:16.8122:0
G1 X108.511 Y66.152 E40.179:17.2196:0
G1 X108.046 Y66.618 E40.194:17.226:0
G1 X137.957 Y96.529 E41.1596:17.6398:0
G1 X137.957 Y97.460 E41.1808:17.6489:0
G1 X107.580 Y67.083 E42.1614:18.0692:0
G1 X107.114 Y67.549 E42.1765:18.0756:0
G1 X137.957 Y98.392 E43.1721:18.5023:0
G1 X137.957 Y99.323 E43.1934:18.5114:0
G1 X106.649 Y68.015 E44.204:18.9446:0
G1 X106.183 Y68.480 E44.2191:18.951:0
G1 X137.957 Y100.254 E45.2448:19.3906:0
G1 X137.957 Y101.186 E45.266:19.3997:0
G1 X105.717 Y68.946 E46.3068:19.8458:0
G1 X105.252 Y69.412 E46.3218:19.8522:0
G1 X137.957 Y102.117 E47.3776:20.3047:0
G1 X137.957 Y103.048 E47.3988:20.3138:0
G1 X104.786 Y69.877 E48.4696:20.7727:0
G1 X104.320 Y70.343 E48.4846:20.7791:0
G1 X137.957 Y103.980 E49.5705:21.2445:0
G1 X137.957 Y104.911 E49.5917:21.2536:0
G1 X103.855 Y70.809 E50.6926:21.7254:0
G1 X103.389 Y71.274 E50.7076:21.7318:0
G1 X137.957 Y105.842 E51.8235:22.2101:0
G1 X137.957 Y106.774 E51.8448:22.2192:0
G1 X102.923 Y71.740 E52.9757:22.7039:0
G1 X102.458 Y72.206 E52.9907:22.7103:0
G1 X137.957 Y107.705 E54.1367:23.2014:0
G1 X137.957 Y108.636 E54.158:23.2106:0
G1 X101.992 Y72.671 E55.3189:23.7081:0
G1 X101.526 Y73.137 E55.334:23.7146:0
G1 X137.957 Y109.568 E56.51:24.2186:0
G1 X137.957 Y110.499 E56.5313:24.2277:0
G1 X101.061 Y73.603 E57.7223:24.7381:0
G1 X100.595 Y74.068 E57.7374:24.7446:0
G1 X137.957 Y111.431 E58.9434:25.2615:0
G1 X137.957 Y112.362 E58.9647:25.2706:0
G1 X100.129 Y74.534 E60.1858:25.7939:0
G1 X99.664 Y75.000 E60.2009:25.8004:0
G1 X137.957 Y113.293 E61.437:26.3301:0
G1 X137.957 Y114.225 E61.4583:26.3393:0
G1 X99.198 Y75.465 E62.7095:26.8755:0
G1 X98.732 Y75.931 E62.7245:26.8819:0
G1 X137.957 Y115.156 E63.9907:27.4246:0
G1 X137.957 Y116.087 E64.012:27.4337:0
G1 X98.267 Y76.397 E65.2932:27.9828:0
G1 X97.801 Y76.863 E65.3083:27.9893:0
G1 X137.957 Y117.019 E66.6045:28.5448:0
G1 X137.957 Y117.950 E66.6258:28.5539:0
G1 X97.335 Y77.328 E67.9371:29.1159:0
G1 X96.870 Y77.794 E67.9521:29.1223:0
G1 X137.957 Y118.881 E69.2785:29.6908:0
G1 X137.957 Y119.813 E69.2998:29.6999:0
G1 X96.404 Y78.260 E70.6411:30.2748:0
G1 X95.938 Y78.725 E70.6562:30.2812:0
G1 X137.957 Y120.744 E72.0126:30.8625:0
G1 X137.957 Y121.675 E72.0339:30.8716:0
G1 X95.472 Y79.191 E73.4053:31.4594:0
G1 X95.007 Y79.657 E73.4203:31.4659:0
G1 X137.957 Y122.607 E74.8068:32.0601:0
G1 X137.957 Y123.538 E74.8281:32.0692:0
G1 X94.541 Y80.122 E76.2296:32.6698:0
G1 X94.075 Y80.588 E76.2446:32.6763:0
G1 X137.957 Y124.469 E77.6612:33.2834:0
G1 X137.957 Y125.401 E77.6824:33.2925:0
G1 X93.610 Y81.054 E79.114:33.906:0
G1 X93.144 Y81.519 E79.129:33.9124:0
G1 X137.957 Y126.332 E80.5756:34.5324:0
G1 X137.957 Y127.264 E80.5969:34.5415:0
G1 X92.678 Y81.985 E82.0585:35.1679:0
G1 X92.213 Y82.451 E82.0736:35.1744:0
G1 X137.957 Y128.195 E83.5503:35.8073:0
G1 X137.957 Y129.126 E83.5715:35.8164:0
G1 X91.747 Y82.916 E85.0632:36.4557:0
G1 X91.281 Y83.382 E85.0783:36.4621:0
G1 X137.957 Y130.058 E86.585:37.1079:0
G1 X137.957 Y130.989 E86.6063:37.117:0
G1 X90.816 Y83.848 E88.128:37.7692:0
G1 X90.350 Y84.313 E88.1431:37.7756:0
G1 X137.957 Y131.920 E89.6799:38.4342:0
G1 X137.957 Y132.852 E89.7011:38.4433:0
G1 X89.884 Y84.779 E91.253:39.1084:0
G1 X89.419 Y85.245 E91.268:39.1149:0
G1 X137.957 Y133.783 E92.8349:39.7864:0
G1 X137.957 Y134.714 E92.8561:39.7955:0
G1 X88.953 Y85.710 E94.438:40.4734:0
G1 X88.487 Y86.176 E94.4531:40.4799:0
G1 X137.957 Y135.646 E96.05:41.1643:0
G1 X137.957 Y136.577 E96.0713:41.1734:0
G1 X88.022 Y86.642 E97.6832:41.8642:0
G1 X87.556 Y87.107 E97.6983:41.8707:0
G1 X137.957 Y137.508 E99.3253:42.568:0
G1 X137.957 Y138.440 E99.3465:42.5771:0
G1 X87.090 Y87.573 E100.989:43.2808:0
G1 X86.625 Y88.039 E101.004:43.2873:0
G1 X137.956 Y139.371 E102.661:43.9974:0
G1 X137.028 Y139.373 E102.682:44.0065:0
G1 X86.159 Y88.504 E104.324:44.7103:0
G1 X85.693 Y88.970 E104.339:44.7167:0
G1 X136.079 Y139.356 E105.965:45.4138:0
G1 X135.130 Y139.338 E105.987:45.4231:0
G1 X85.228 Y89.436 E107.598:46.1135:0
G1 X84.762 Y89.901 E107.613:46.1199:0
G1 X134.181 Y139.321 E109.208:46.8036:0
G1 X133.232 Y139.303 E109.23:46.8129:0
G1 X84.296 Y90.367 E110.81:47.4899:0
G1 X83.831 Y90.833 E110.825:47.4963:0
G1 X132.283 Y139.286 E112.389:48.1667:0
G1 X131.335 Y139.268 E112.411:48.176:0
G1 X83.365 Y91.299 E113.959:48.8396:0
G1 X82.899 Y91.764 E113.974:48.8461:0
G1 X130.386 Y139.251 E115.507:49.503:0
G1 X129.437 Y139.233 E115.529:49.5123:0
G1 X82.434 Y92.230 E117.046:50.1626:0
G1 X81.968 Y92.696 E117.061:50.169:0
G1 X128.488 Y139.216 E118.563:50.8126:0
G1 X127.539 Y139.198 E118.584:50.8219:0
G1 X81.502 Y93.161 E120.071:51.4588:0
G1 X81.036 Y93.627 E120.086:51.4653:0
G1 X126.590 Y139.181 E121.556:52.0955:0
G1 X125.641 Y139.163 E121.578:52.1048:0
G1 X80.571 Y94.093 E123.033:52.7283:0
G1 X80.105 Y94.558 E123.048:52.7348:0
G1 X124.693 Y139.146 E124.487:53.3516:0
G1 X123.744 Y139.128 E124.509:53.3609:0
G1 X79.639 Y95.024 E125.932:53.9711:0
G1 X79.174 Y95.490 E125.948:53.9775:0
G1 X122.795 Y139.111 E127.356:54.581:0
G1 X121.846 Y139.093 E127.377:54.5903:0
G1 X78.708 Y95.955 E128.77:55.1871:0
G1 X78.242 Y96.421 E128.785:55.1935:0
G1 X120.897 Y139.076 E130.162:55.7837:0
G1 X119.948 Y139.058 E130.184:55.7929:0
G1 X77.777 Y96.887 E131.545:56.3764:0
G1 X77.311 Y97.352 E131.56:56.3828:0
G1 X119.000 Y139.041 E132.906:56.9596:0
G1 X118.051 Y139.023 E132.927:56.9688:0
G1 X76.845 Y97.818 E134.257:57.5389:0
G1 X76.380 Y98.284 E134.273:57.5454:0
G1 X117.102 Y139.006 E135.587:58.1087:0
G1 X116.153 Y138.988 E135.609:58.118:0
G1 X75.914 Y98.749 E136.908:58.6747:0
G1 X75.448 Y99.215 E136.923:58.6812:0
G1 X115.204 Y138.971 E138.206:59.2312:0
G1 X114.255 Y138.953 E138.228:59.2405:0
G1 X74.983 Y99.681 E139.496:59.7838:0
G1 X74.517 Y100.146 E139.511:59.7902:0
G1 X113.306 Y138.936 E140.763:60.3269:0
G1 X112.358 Y138.918 E140.784:60.3362:0
G1 X74.051 Y100.612 E142.021:60.8661:0
G1 X73.586 Y101.078 E142.036:60.8726:0
G1 X111.409 Y138.901 E143.257:61.3958:0
G1 X110.460 Y138.883 E143.279:61.4051:0
G1 X73.120 Y101.543 E144.484:61.9217:0
G1 X72.654 Y102.009 E144.499:61.9282:0
G1 X109.511 Y138.866 E145.689:62.4381:0
G1 X108.562 Y138.848 E145.71:62.4473:0
G1 X72.189 Y102.475 E146.885:62.9506:0
G1 X71.723 Y102.940 E146.9:62.957:0
G1 X107.613 Y138.831 E148.058:63.4535:0
G1 X106.665 Y138.813 E148.08:63.4628:0
G1 X71.257 Y103.406 E149.223:63.9527:0
G1 X70.792 Y103.872 E149.238:63.9591:0
G1 X105.716 Y138.796 E150.365:64.4423:0
G1 X104.767 Y138.779 E150.387:64.4516:0
G1 X70.326 Y104.338 E151.499:64.9281:0
G1 X69.860 Y104.803 E151.514:64.9345:0
G1 X103.818 Y138.761 E152.61:65.4043:0
G1 X102.869 Y138.744 E152.632:65.4136:0
G1 X69.395 Y105.269 E153.712:65.8767:0
G1 X68.929 Y105.735 E153.727:65.8831:0
G1 X101.920 Y138.726 E154.792:66.3396:0
G1 X100.972 Y138.709 E154.814:66.3489:0
G1 X68.463 Y106.200 E155.863:66.7986:0
G1 X67.998 Y106.666 E155.878:66.805:0
G1 X100.023 Y138.691 E156.912:67.2481:0
G1 X99.074 Y138.674 E156.934:67.2574:0
G1 X67.532 Y107.132 E157.952:67.6938:0
G1 X67.066 Y107.597 E157.967:67.7002:0
G1 X98.125 Y138.656 E158.97:68.1299:0
G1 X97.176 Y138.639 E158.991:68.1392:0
G1 X66.600 Y108.063 E159.978:68.5622:0
G1 X66.135 Y108.529 E159.993:68.5686:0
G1 X96.227 Y138.621 E160.965:68.985:0
G1 X95.278 Y138.604 E160.987:68.9942:0
G1 X65.669 Y108.994 E161.942:69.4039:0
G1 X65.203 Y109.460 E161.957:69.4103:0
G1 X94.330 Y138.586 E162.898:69.8133:0
G1 X93.381 Y138.569 E162.919:69.8226:0
G1 X64.738 Y109.926 E163.844:70.2188:0
G1 X64.272 Y110.391 E163.859:70.2253:0
G1 X92.432 Y138.551 E164.768:70.6149:0
G1 X91.483 Y138.534 E164.79:70.6241:0
G1 X63.806 Y110.857 E165.683:71.007:0
G1 X63.341 Y111.323 E165.698:71.0135:0
G1 X90.534 Y138.516 E166.576:71.3897:0
G1 X89.585 Y138.499 E166.598:71.399:0
G1 X62.875 Y111.788 E167.46:71.7685:0
G1 X62.409 Y112.254 E167.475:71.775:0
G1 X88.637 Y138.481 E168.322:72.1378:0
G1 X87.688 Y138.464 E168.343:72.1471:0
G1 X62.127 Y112.903 E169.168:72.5007:0
G1 X62.124 Y113.831 E169.19:72.5098:0
G1 X86.739 Y138.446 E169.984:72.8504:0
G1 X85.790 Y138.429 E170.006:72.8596:0
G1 X62.121 Y114.760 E170.77:73.1871:0
G1 X62.118 Y115.688 E170.791:73.1962:0
G1 X84.841 Y138.411 E171.525:73.5105:0
G1 X83.892 Y138.394 E171.546:73.5198:0
G1 X62.115 Y116.616 E172.249:73.8211:0
G1 X62.112 Y117.545 E172.27:73.8302:0
G1 X82.944 Y138.376 E172.943:74.1184:0
G1 X81.995 Y138.359 E172.965:74.1277:0
G1 X62.109 Y118.473 E173.607:74.4028:0
G1 X62.106 Y119.402 E173.628:74.4119:0
G1 X81.046 Y138.341 E174.239:74.6739:0
G1 X80.097 Y138.324 E174.261:74.6832:0
G1 X62.104 Y120.330 E174.842:74.9321:0
G1 X62.101 Y121.259 E174.863:74.9412:0
G1 X79.148 Y138.306 E175.413:75.177:0
G1 X78.199 Y138.289 E175.435:75.1863:0
G1 X62.098 Y122.187 E175.955:75.4091:0
G1 X62.095 Y123.116 E175.976:75.4182:0
G1 X77.250 Y138.271 E176.465:75.6278:0
G1 X76.302 Y138.254 E176.487:75.6371:0
G1 X62.092 Y124.044 E176.945:75.8337:0
G1 X62.089 Y124.973 E176.967:75.8428:0
G1 X75.353 Y138.236 E177.395:76.0263:0
G1 X74.404 Y138.219 E177.416:76.0356:0
G1 X62.086 Y125.901 E177.814:76.206:0
G1 X62.083 Y126.830 E177.835:76.2151:0
G1 X73.455 Y138.201 E178.202:76.3724:0
G1 X72.506 Y138.184 E178.224:76.3817:0
G1 X62.080 Y127.758 E178.56:76.5259:0
G1 X62.078 Y128.687 E178.582:76.535:0
G1 X71.557 Y138.166 E178.888:76.6662:0
G1 X70.609 Y138.149 E178.909:76.6754:0
G1 X62.075 Y129.615 E179.185:76.7935:0
G1 X62.072 Y130.544 E179.206:76.8026:0
G1 X69.660 Y138.131 E179.451:76.9076:0
G1 X68.711 Y138.114 E179.473:76.9168:0
G1 X62.069 Y131.472 E179.687:77.0087:0
G1 X62.066 Y132.401 E179.708:77.0178:0
G1 X67.762 Y138.096 E179.892:77.0966:0
G1 X66.813 Y138.079 E179.914:77.1059:0
G1 X62.063 Y133.329 E180.067:77.1716:0
G1 X62.060 Y134.257 E180.088:77.1807:0
G1 X65.864 Y138.061 E180.211:77.2333:0
G1 X64.915 Y138.044 E180.233:77.2426:0
G1 X62.057 Y135.186 E180.325:77.2822:0
G1 X62.055 Y136.114 E180.346:77.2912:0
G1 X63.967 Y138.026 E180.408:77.3177:0
G1 X63.018 Y138.009 E180.43:77.327:0
G1 X62.052 Y137.043 E180.461:77.3403:0
G1 X62.049 Y137.971 E180.482:77.3494:0
G1 X62.069 Y137.992 E180.483:77.3497:0
G1 F1800.000 E179.783:77.0497:0
G92 E0
G1 Z0.750 F7800.000
G1 X60.976 Y139.033 F7800.000
