; generated by Slic3r 1.0.0RC3 on 2014-07-05 at 16:39:33

; layer_height = 1.4
; perimeters = 1
; top_solid_layers = 0
; bottom_solid_layers = 0
; fill_density = 0.6
; perimeter_speed = 20
; infill_speed = 20
; travel_speed = 60
; nozzle_diameter = 1.5
; filament_diameter = 3
; extrusion_multiplier = 1
; perimeters extrusion width = 1.50mm
; infill extrusion width = 1.58mm
; solid infill extrusion width = 1.58mm
; top infill extrusion width = 1.58mm
; first layer extrusion width = 3.00mm

G21 ; set units to millimeters
M107
G28 ; home all axes
G1 Z5 F5000 ; lift nozzle
G90 ; use absolute coordinates
G92 E0
M82 ; use absolute distances for extrusion
G1 F1800.000 E-1.00000
G92 E0
G1 Z1.500 F3600.000
G1 X67.057 Y64.408 F3600.000
G1 E1.00000 F1800.000
G1 X70.891 Y61.209 E3.83770 F1200
M206 T3 P945 X79
M206 T3 P949 X11
G1 X75.034 Y58.422 E6.67540
G1 X79.441 Y56.075 E9.51311
G1 X84.066 Y54.194 E12.35082
G1 X88.861 Y52.799 E15.18852
G1 X93.773 Y51.903 E18.02622
G1 X98.751 Y51.518 E20.86393
G1 X103.743 Y51.647 E23.70163
G1 X108.695 Y52.288 E26.53933
G1 X113.554 Y53.435 E29.37704
G1 X118.271 Y55.075 E32.21474
G1 X122.793 Y57.192 E35.05245
M206 T3 P945 X78
M206 T3 P953 X11
G1 X127.074 Y59.762 E37.89015
G1 X131.067 Y62.759 E40.72786
G1 X134.732 Y66.151 E43.56556
G1 X138.028 Y69.902 E46.40327
G1 X140.921 Y73.971 E49.24097
G1 X143.381 Y78.317 E52.07867
G1 X145.380 Y82.892 E54.91637
G1 X146.899 Y87.649 E57.75408
G1 X147.920 Y92.537 E60.59179
G1 X148.436 Y97.523 E63.44049
G1 X148.500 Y100.000 E64.84887
M206 T3 P945 X77
M206 T3 P953 X12
G1 X148.436 Y102.477 E66.25725
G1 X147.920 Y107.463 E69.10595
G1 X146.899 Y112.351 E71.94366
G1 X145.380 Y117.108 E74.78136
G1 X143.381 Y121.683 E77.61907
G1 X140.921 Y126.029 E80.45677
G1 X138.028 Y130.098 E83.29447
G1 X134.732 Y133.849 E86.13218
G1 X131.067 Y137.241 E88.96988
G1 X127.074 Y140.238 E91.80759
G1 X122.793 Y142.808 E94.64529
M206 T3 P945 X76
M206 T3 P953 X13
G1 X118.271 Y144.925 E97.48300
G1 X113.554 Y146.565 E100.32070
G1 X108.695 Y147.712 E103.15840
G1 X103.743 Y148.353 E105.99611
G1 X98.751 Y148.482 E108.83381
G1 X93.773 Y148.097 E111.67152
G1 X88.861 Y147.201 E114.50922
G1 X84.066 Y145.806 E117.34692
G1 X79.441 Y143.925 E120.18463
G1 X75.034 Y141.578 E123.02233
G1 X70.891 Y138.791 E125.86003
M206 T3 P945 X75
M206 T3 P953 X14
G1 X67.057 Y135.592 E128.69774
G1 X63.572 Y132.016 E131.53545
G1 X60.473 Y128.101 E134.37314
G1 X57.793 Y123.888 E137.21085
G1 X55.560 Y119.421 E140.04856
G1 X53.799 Y114.749 E142.88626
G1 X52.527 Y109.920 E145.72397
G1 X51.759 Y104.987 E148.56167
G1 X51.502 Y100.000 E151.39938
G1 X51.759 Y95.013 E154.23708
G1 X52.527 Y90.080 E157.07478
M206 T3 P945 X74
M206 T3 P953 X15
G1 X53.799 Y85.251 E159.91249
G1 X55.560 Y80.579 E162.75020
G1 X57.793 Y76.112 E165.58790
G1 X60.473 Y71.899 E168.42560
G1 X63.572 Y67.984 E171.26331
G1 X66.776 Y64.696 E173.87272
G1 F1800.000 E172.87272
G92 E0
G1 X68.787 Y66.278 F3600.000
G1 E1.00000 F1800.000
G1 X72.420 Y63.247 E3.68864 F1200
M206 T3 P945 X73
M206 T3 P953 X16
G1 X76.345 Y60.606 E6.37728
G1 X80.521 Y58.383 E9.06592
G1 X84.903 Y56.600 E11.75457
G1 X89.446 Y55.278 E14.44320
G1 X94.100 Y54.430 E17.13185
G1 X98.817 Y54.065 E19.82049
G1 X103.546 Y54.187 E22.50913
G1 X108.238 Y54.794 E25.19777
G1 X112.842 Y55.881 E27.88641
G1 X117.311 Y57.435 E30.57505
G1 X121.596 Y59.441 E33.26370
M206 T3 P945 X72
M206 T3 P953 X17
G1 X125.652 Y61.876 E35.95234
G1 X129.436 Y64.716 E38.64099
G1 X132.908 Y67.929 E41.32962
G1 X136.031 Y71.483 E44.01827
G1 X138.772 Y75.339 E46.70691
G1 X141.102 Y79.456 E49.39555
G1 X142.997 Y83.791 E52.08419
G1 X144.435 Y88.298 E54.77284
G1 X145.403 Y92.929 E57.46148
G1 X145.895 Y97.686 E60.17977
G1 X145.954 Y100.000 E61.49504
M206 T3 P945 X71
M206 T3 P953 X18
G1 X145.895 Y102.314 E62.81030
G1 X145.403 Y107.071 E65.52859
G1 X144.435 Y111.702 E68.21724
G1 X142.997 Y116.209 E70.90587
G1 X141.102 Y120.544 E73.59452
G1 X138.772 Y124.661 E76.28316
G1 X136.031 Y128.517 E78.97180
G1 X132.908 Y132.071 E81.66045
G1 X129.436 Y135.284 E84.34908
G1 X125.652 Y138.124 E87.03773
G1 X121.596 Y140.559 E89.72637
M206 T3 P945 X70
M206 T3 P953 X19
G1 X117.311 Y142.565 E92.41502
G1 X112.842 Y144.119 E95.10365
G1 X108.238 Y145.206 E97.79230
G1 X103.546 Y145.813 E100.48094
G1 X98.817 Y145.935 E103.16958
G1 X94.100 Y145.570 E105.85822
G1 X89.446 Y144.722 E108.54687
G1 X84.903 Y143.400 E111.23551
G1 X80.521 Y141.617 E113.92415
G1 X76.345 Y139.394 E116.61279
G1 X72.420 Y136.753 E119.30143
M206 T3 P945 X69
M206 T3 P953 X20
G1 X68.787 Y133.722 E121.99008
G1 X65.485 Y130.334 E124.67872
G1 X62.549 Y126.625 E127.36735
G1 X60.010 Y122.633 E130.05600
G1 X57.895 Y118.401 E132.74464
G1 X56.226 Y113.974 E135.43329
G1 X55.021 Y109.399 E138.12193
G1 X54.293 Y104.725 E140.81057
G1 X54.050 Y100.000 E143.49921
G1 X54.293 Y95.275 E146.18786
G1 X55.021 Y90.601 E148.87650
M206 T3 P945 X68
M206 T3 P953 X21
G1 X56.226 Y86.026 E151.56514
G1 X57.895 Y81.599 E154.25378
G1 X60.010 Y77.367 E156.94242
G1 X62.549 Y73.375 E159.63106
G1 X65.485 Y69.666 E162.31971
G1 X68.507 Y66.565 E164.78005
G1 F1800.000 E163.78005
G92 E0
G1 X71.823 Y69.558 F3600.000
G1 E1.00000 F1800.000
G1 X75.102 Y66.822 E3.42713 F1200
M206 T3 P945 X67
M206 T3 P953 X22
G1 X78.646 Y64.438 E5.85425
G1 X82.416 Y62.431 E8.28138
G1 X86.372 Y60.822 E10.70851
G1 X90.472 Y59.628 E13.13564
G1 X94.674 Y58.862 E15.56277
G1 X98.932 Y58.533 E17.98990
G1 X103.201 Y58.643 E20.41702
G1 X107.437 Y59.191 E22.84415
G1 X111.593 Y60.172 E25.27127
G1 X115.627 Y61.575 E27.69840
G1 X119.495 Y63.386 E30.12554
M206 T3 P945 X66
M206 T3 P949 X12
G1 X123.157 Y65.584 E32.55266
G1 X126.572 Y68.148 E34.97979
G1 X129.707 Y71.049 E37.40692
G1 X132.526 Y74.256 E39.83406
G1 X135.001 Y77.737 E42.26118
G1 X137.104 Y81.454 E44.68830
G1 X138.814 Y85.367 E47.11543
G1 X140.113 Y89.436 E49.54256
G1 X140.987 Y93.616 E51.96969
G1 X141.437 Y97.974 E54.45920
G1 X141.489 Y100.000 E55.61110
M206 T3 P945 X65
M206 T3 P953 X23
G1 X141.437 Y102.026 E56.76300
G1 X140.987 Y106.384 E59.25250
G1 X140.113 Y110.564 E61.67963
G1 X138.814 Y114.633 E64.10676
G1 X137.104 Y118.546 E66.53389
G1 X135.001 Y122.263 E68.96102
G1 X132.526 Y125.744 E71.38813
G1 X129.707 Y128.951 E73.81527
G1 X126.572 Y131.852 E76.24240
G1 X123.157 Y134.416 E78.66953
G1 X119.495 Y136.614 E81.09666
M206 T3 P945 X64
M206 T3 P953 X24
G1 X115.627 Y138.425 E83.52379
G1 X111.593 Y139.828 E85.95091
G1 X107.437 Y140.809 E88.37804
G1 X103.201 Y141.357 E90.80517
G1 X98.932 Y141.467 E93.23229
G1 X94.674 Y141.138 E95.65942
G1 X90.472 Y140.372 E98.08656
G1 X86.372 Y139.178 E100.51368
G1 X82.416 Y137.569 E102.94081
G1 X78.646 Y135.562 E105.36794
G1 X75.103 Y133.178 E107.79506
M206 T3 P945 X63
M206 T3 P953 X25
G1 X71.823 Y130.442 E110.22219
G1 X68.842 Y127.384 E112.64933
G1 X66.192 Y124.035 E115.07645
G1 X63.900 Y120.431 E117.50358
G1 X61.990 Y116.611 E119.93071
G1 X60.484 Y112.615 E122.35784
G1 X59.396 Y108.485 E124.78496
G1 X58.739 Y104.265 E127.21209
G1 X58.519 Y100.000 E129.63922
G1 X58.739 Y95.735 E132.06635
G1 X59.396 Y91.515 E134.49348
M206 T3 P945 X62
M206 T3 P953 X26
G1 X60.484 Y87.385 E136.92061
G1 X61.990 Y83.389 E139.34774
G1 X63.900 Y79.569 E141.77486
G1 X66.192 Y75.965 E144.20199
G1 X68.842 Y72.616 E146.62912
G1 X71.543 Y69.845 E148.82795
G1 F1800.000 E147.82795
G92 E0
G1 X74.859 Y72.838 F3600.000
G1 E1.00000 F1800.000
G1 X77.785 Y70.397 E3.16561 F1200
M206 T3 P945 X61
M206 T3 P953 X27
G1 X80.947 Y68.269 E5.33122
G1 X84.310 Y66.479 E7.49684
G1 X87.840 Y65.043 E9.66246
G1 X91.499 Y63.978 E11.82807
G1 X95.248 Y63.295 E13.99369
G1 X99.047 Y63.001 E16.15930
G1 X102.856 Y63.099 E18.32491
G1 X106.635 Y63.588 E20.49053
G1 X110.344 Y64.463 E22.65614
G1 X113.943 Y65.715 E24.82175
G1 X117.395 Y67.331 E26.98737
M206 T3 P945 X60
M206 T3 P953 X28
G1 X120.661 Y69.292 E29.15299
G1 X123.709 Y71.580 E31.31860
G1 X126.506 Y74.168 E33.48421
G1 X129.022 Y77.030 E35.64984
G1 X131.229 Y80.136 E37.81544
G1 X133.106 Y83.452 E39.98105
G1 X134.632 Y86.944 E42.14667
G1 X135.791 Y90.574 E44.31229
G1 X136.571 Y94.304 E46.47791
G1 X136.980 Y98.261 E48.73862
G1 X137.025 Y100.000 E49.72716
M206 T3 P945 X59
M206 T3 P953 X29
G1 X136.980 Y101.739 E50.71569
G1 X136.571 Y105.696 E52.97641
G1 X135.791 Y109.426 E55.14202
G1 X134.632 Y113.056 E57.30764
G1 X133.106 Y116.548 E59.47326
G1 X131.229 Y119.864 E61.63887
G1 X129.022 Y122.970 E63.80447
G1 X126.506 Y125.832 E65.97010
G1 X123.709 Y128.420 E68.13571
G1 X120.661 Y130.708 E70.30133
G1 X117.395 Y132.669 E72.46695
M206 T3 P945 X58
M206 T3 P953 X30
G1 X113.943 Y134.285 E74.63256
G1 X110.344 Y135.537 E76.79817
G1 X106.635 Y136.412 E78.96379
G1 X102.856 Y136.901 E81.12940
G1 X99.047 Y136.999 E83.29501
G1 X95.248 Y136.705 E85.46062
G1 X91.499 Y136.022 E87.62625
G1 X87.840 Y134.957 E89.79186
G1 X84.310 Y133.521 E91.95748
G1 X80.947 Y131.731 E94.12309
G1 X77.785 Y129.603 E96.28869
M206 T3 P945 X57
M206 T3 P953 X31
G1 X74.859 Y127.162 E98.45431
G1 X72.199 Y124.433 E100.61994
G1 X69.834 Y121.445 E102.78554
G1 X67.789 Y118.230 E104.95116
G1 X66.086 Y114.821 E107.11677
G1 X64.741 Y111.256 E109.28239
G1 X63.771 Y107.571 E111.44800
G1 X63.185 Y103.806 E113.61362
G1 X62.988 Y100.000 E115.77923
G1 X63.185 Y96.194 E117.94485
G1 X63.771 Y92.429 E120.11046
M206 T3 P945 X56
M206 T3 P953 X32
G1 X64.741 Y88.744 E122.27608
G1 X66.086 Y85.179 E124.44169
G1 X67.789 Y81.770 E126.60730
G1 X69.834 Y78.555 E128.77292
G1 X72.199 Y75.567 E130.93854
G1 X74.579 Y73.125 E132.87585
G1 F1800.000 E131.87585
G92 E0
G1 X77.895 Y76.118 F3600.000
G1 E1.00000 F1800.000
G1 X80.468 Y73.971 E2.90410 F1200
M206 T3 P945 X55
M206 T3 P953 X33
G1 X83.248 Y72.101 E4.80820
G1 X86.205 Y70.526 E6.71230
G1 X89.309 Y69.264 E8.61640
G1 X92.525 Y68.328 E10.52050
G1 X95.822 Y67.727 E12.42461
G1 X99.162 Y67.469 E14.32870
G1 X102.511 Y67.555 E16.23281
G1 X105.834 Y67.985 E18.13690
G1 X109.095 Y68.755 E20.04100
G1 X112.260 Y69.855 E21.94510
G1 X115.294 Y71.276 E23.84921
M206 T3 P945 X54
M206 T3 P953 X34
G1 X118.166 Y73.000 E25.75331
G1 X120.846 Y75.011 E27.65741
G1 X123.305 Y77.287 E29.56150
G1 X125.517 Y79.804 E31.46562
G1 X127.458 Y82.535 E33.36971
G1 X129.109 Y85.451 E35.27381
G1 X130.450 Y88.521 E37.17792
G1 X131.469 Y91.712 E39.08202
G1 X132.155 Y94.992 E40.98612
G1 X132.522 Y98.548 E43.01804
G1 X132.560 Y100.000 E43.84322
M206 T3 P945 X53
M206 T3 P949 X13
G1 X132.522 Y101.451 E44.66839
G1 X132.155 Y105.008 E46.70032
G1 X131.469 Y108.288 E48.60442
G1 X130.450 Y111.479 E50.50852
G1 X129.109 Y114.549 E52.41264
G1 X127.458 Y117.465 E54.31673
G1 X125.517 Y120.196 E56.22081
G1 X123.305 Y122.713 E58.12492
G1 X120.846 Y124.988 E60.02902
G1 X118.166 Y126.999 E61.93313
G1 X115.294 Y128.724 E63.83724
M206 T3 P945 X52
M206 T3 P953 X35
G1 X112.260 Y130.145 E65.74133
G1 X109.095 Y131.245 E67.64542
G1 X105.834 Y132.015 E69.54953
G1 X102.511 Y132.445 E71.45364
G1 X99.162 Y132.531 E73.35772
G1 X95.822 Y132.273 E75.26182
G1 X92.525 Y131.672 E77.16594
G1 X89.309 Y130.736 E79.07003
G1 X86.205 Y129.474 E80.97414
G1 X83.247 Y127.899 E82.87825
G1 X80.468 Y126.029 E84.78232
M206 T3 P945 X51
M206 T3 P953 X36
G1 X77.895 Y123.882 E86.68643
G1 X75.557 Y121.483 E88.59055
G1 X73.477 Y118.856 E90.49463
G1 X71.679 Y116.029 E92.39874
G1 X70.181 Y113.032 E94.30284
G1 X68.999 Y109.897 E96.20694
G1 X68.146 Y106.657 E98.11104
G1 X67.630 Y103.346 E100.01514
G1 X67.458 Y100.000 E101.91924
G1 X67.630 Y96.654 E103.82334
G1 X68.146 Y93.343 E105.72745
M206 T3 P945 X50
M206 T3 P953 X37
G1 X68.999 Y90.103 E107.63154
G1 X70.181 Y86.968 E109.53565
G1 X71.679 Y83.971 E111.43975
G1 X73.477 Y81.144 E113.34385
G1 X75.557 Y78.517 E115.24795
G1 X77.615 Y76.405 E116.92375
G1 F1800.000 E115.92375
G92 E0
G1 X80.931 Y79.398 F3600.000
G1 E1.00000 F1800.000
G1 X83.150 Y77.546 E2.64259 F1200
M206 T3 P945 X49
M206 T3 P953 X38
G1 X85.548 Y75.933 E4.28517
G1 X88.100 Y74.574 E5.92776
G1 X90.777 Y73.486 E7.57035
G1 X93.552 Y72.678 E9.21293
G1 X96.396 Y72.160 E10.85553
G1 X99.277 Y71.937 E12.49811
G1 X102.167 Y72.011 E14.14070
G1 X105.033 Y72.382 E15.78328
G1 X107.846 Y73.046 E17.42586
G1 X110.576 Y73.996 E19.06845
G1 X113.194 Y75.221 E20.71105
M206 T3 P945 X48
M206 T3 P953 X39
G1 X115.671 Y76.709 E22.35363
G1 X117.983 Y78.443 E23.99622
G1 X120.104 Y80.407 E25.63880
G1 X122.012 Y82.578 E27.28140
G1 X123.687 Y84.933 E28.92398
G1 X125.111 Y87.449 E30.56656
G1 X126.268 Y90.097 E32.20916
G1 X127.147 Y92.851 E33.85174
G1 X127.738 Y95.680 E35.49433
G1 X128.065 Y98.836 E37.29746
G1 X128.095 Y100.000 E37.95928
M206 T3 P945 X47
M206 T3 P953 X40
G1 X128.065 Y101.164 E38.62109
G1 X127.738 Y104.320 E40.42423
G1 X127.147 Y107.149 E42.06681
G1 X126.268 Y109.903 E43.70940
G1 X125.111 Y112.551 E45.35201
G1 X123.687 Y115.067 E46.99458
G1 X122.012 Y117.422 E48.63714
G1 X120.104 Y119.593 E50.27975
G1 X117.983 Y121.557 E51.92234
G1 X115.671 Y123.291 E53.56493
G1 X113.194 Y124.779 E55.20753
M206 T3 P945 X46
M206 T3 P953 X41
G1 X110.576 Y126.004 E56.85010
G1 X107.846 Y126.954 E58.49268
G1 X105.033 Y127.618 E60.13528
G1 X102.167 Y127.989 E61.77787
G1 X99.277 Y128.063 E63.42043
G1 X96.396 Y127.840 E65.06302
G1 X93.552 Y127.322 E66.70563
G1 X90.777 Y126.514 E68.34821
G1 X88.100 Y125.426 E69.99081
G1 X85.548 Y124.067 E71.63340
G1 X83.150 Y122.454 E73.27595
M206 T3 P945 X45
M206 T3 P953 X42
G1 X80.931 Y120.602 E74.91855
G1 X78.914 Y118.532 E76.56116
G1 X77.120 Y116.266 E78.20373
G1 X75.569 Y113.827 E79.84631
G1 X74.276 Y111.242 E81.48891
G1 X73.257 Y108.537 E83.13149
G1 X72.521 Y105.742 E84.77407
G1 X72.076 Y102.886 E86.41667
G1 X71.927 Y100.000 E88.05925
G1 X72.076 Y97.114 E89.70184
G1 X72.521 Y94.258 E91.34443
M206 T3 P945 X44
M206 T3 P953 X43
G1 X73.257 Y91.463 E92.98701
G1 X74.276 Y88.758 E94.62960
G1 X75.569 Y86.173 E96.27219
G1 X77.120 Y83.734 E97.91477
G1 X78.914 Y81.468 E99.55736
G1 X80.651 Y79.685 E100.97165
G1 F1800.000 E99.97165
G92 E0
G1 X83.967 Y82.678 F3600.000
G1 E1.00000 F1800.000
G1 X85.833 Y81.121 E2.38108 F1200
M206 T3 P945 X43
M206 T3 P953 X44
G1 X87.849 Y79.765 E3.76214
G1 X89.994 Y78.622 E5.14322
G1 X92.245 Y77.707 E6.52429
G1 X94.579 Y77.028 E7.90537
G1 X96.969 Y76.592 E9.28644
G1 X99.392 Y76.404 E10.66751
G1 X101.822 Y76.467 E12.04859
G1 X104.232 Y76.779 E13.42966
G1 X106.597 Y77.337 E14.81072
G1 X108.892 Y78.136 E16.19180
G1 X111.093 Y79.166 E17.57288
M206 T3 P945 X42
M206 T3 P953 X45
G1 X113.176 Y80.417 E18.95396
G1 X115.120 Y81.875 E20.33502
G1 X116.904 Y83.526 E21.71609
G1 X118.508 Y85.352 E23.09719
G1 X119.916 Y87.332 E24.47824
G1 X121.113 Y89.447 E25.85931
G1 X122.086 Y91.674 E27.24040
G1 X122.825 Y93.989 E28.62147
G1 X123.322 Y96.368 E30.00254
G1 X123.607 Y99.123 E31.57689
G1 X123.630 Y100.000 E32.07534
M206 T3 P945 X41
M206 T3 P953 X46
G1 X123.607 Y100.877 E32.57379
G1 X123.322 Y103.632 E34.14813
G1 X122.825 Y106.011 E35.52920
G1 X122.086 Y108.326 E36.91028
G1 X121.113 Y110.553 E38.29138
G1 X119.916 Y112.668 E39.67244
G1 X118.508 Y114.648 E41.05348
G1 X116.904 Y116.474 E42.43457
G1 X115.120 Y118.125 E43.81565
G1 X113.176 Y119.583 E45.19673
G1 X111.093 Y120.834 E46.57782
M206 T3 P945 X40
M206 T3 P949 X14
G1 X108.892 Y121.864 E47.95887
G1 X106.597 Y122.663 E49.33993
G1 X104.232 Y123.221 E50.72102
G1 X101.822 Y123.533 E52.10210
G1 X99.392 Y123.596 E53.48315
G1 X96.969 Y123.408 E54.86422
G1 X94.579 Y122.972 E56.24532
G1 X92.245 Y122.293 E57.62638
G1 X89.994 Y121.378 E59.00747
G1 X87.849 Y120.235 E60.38855
G1 X85.833 Y118.879 E61.76958
M206 T3 P945 X39
M206 T3 P953 X47
G1 X83.967 Y117.322 E63.15067
G1 X82.271 Y115.582 E64.53177
G1 X80.763 Y113.676 E65.91282
G1 X79.458 Y111.626 E67.29389
G1 X78.372 Y109.452 E68.67497
G1 X77.515 Y107.178 E70.05604
G1 X76.896 Y104.828 E71.43711
G1 X76.522 Y102.427 E72.81819
G1 X76.397 Y100.000 E74.19926
G1 X76.522 Y97.573 E75.58034
G1 X76.896 Y95.172 E76.96141
M206 T3 P945 X38
M206 T3 P953 X48
G1 X77.515 Y92.822 E78.34248
G1 X78.372 Y90.548 E79.72356
G1 X79.458 Y88.374 E81.10463
G1 X80.763 Y86.324 E82.48570
G1 X82.271 Y84.418 E83.86678
G1 X83.686 Y82.966 E85.01955
G1 F1800.000 E84.01955
G92 E0
G1 X87.003 Y85.958 F3600.000
G1 E1.00000 F1800.000
G1 X88.516 Y84.696 E2.11956 F1200
M206 T3 P945 X37
M206 T3 P953 X49
G1 X90.150 Y83.596 E3.23912
